app/images/svg/telegram-_5_ 1.svg

<svg width="30" height="30" viewBox="0 0 30 30" fill="none" xmlns="http://www.w3.org/2000/svg">
<path d="M27.9493 2.66015C25.9571 3.39258 1.377 12.832 1.01372 13.0078C-0.187455 13.5762 -0.32808 14.3262 0.673873 14.8359C0.773482 14.8887 2.43168 15.416 4.37114 16.0195L7.89262 17.1152L15.8848 12.1113C20.2852 9.36328 23.9707 7.07812 24.0762 7.04296C24.3516 6.94921 24.586 6.95507 24.6914 7.0664C24.7676 7.14257 24.7735 7.17773 24.709 7.28906C24.6739 7.36523 21.75 10.0195 18.2227 13.1836C14.6954 16.3535 11.795 18.9668 11.7832 18.9961C11.7715 19.0254 11.6543 20.6074 11.5196 22.5117L11.2735 25.9687L11.543 25.9336C11.6895 25.916 11.918 25.8398 12.0528 25.7637C12.1934 25.6934 13.1075 24.8613 14.0977 23.918C15.0821 22.9746 15.9258 22.1836 15.9668 22.1719C16.0079 22.1543 17.5782 23.2676 19.459 24.6445C21.334 26.0215 23.0157 27.2109 23.1973 27.293C23.6719 27.5156 24.1993 27.5332 24.545 27.3516C24.8555 27.1875 25.1543 26.7773 25.2832 26.3496C25.3301 26.1855 26.4082 21.2227 27.668 15.3223C29.7715 5.50195 29.9649 4.55273 29.9649 4.04296C29.9649 3.5625 29.9473 3.44531 29.8184 3.19336C29.7305 3.01172 29.5723 2.83008 29.42 2.72461C29.0743 2.48437 28.5 2.45508 27.9493 2.66015Z" fill="white"/>
</svg>

<svg width="30" height="30" viewBox="0 0 30 30" fill="none" xmlns="http://www.w3.org/2000/svg"><path d="M27.95 2.66c-1.993.733-26.573 10.172-26.936 10.348-1.201.568-1.342 1.318-.34 1.828.1.053 1.758.58 3.697 1.184l3.522 1.095 7.992-5.004c4.4-2.748 8.086-5.033 8.191-5.068.276-.094.51-.088.615.023.077.077.082.112.018.223-.035.076-2.959 2.73-6.486 5.895-3.528 3.17-6.428 5.783-6.44 5.812-.011.03-.129 1.611-.263 3.516l-.246 3.457.269-.035c.147-.018.375-.094.51-.17.14-.07 1.054-.903 2.045-1.846.984-.943 1.828-1.734 1.869-1.746.04-.018 1.611 1.096 3.492 2.473 1.875 1.377 3.557 2.566 3.738 2.648.475.223 1.002.24 1.348.059.31-.165.61-.575.738-1.002.047-.165 1.125-5.127 2.385-11.028 2.104-9.82 2.297-10.77 2.297-11.279 0-.48-.018-.598-.147-.85a1.3 1.3 0 00-.398-.468c-.346-.24-.92-.27-1.47-.065z" fill="#fff"/></svg>
